;FLAVOR:RepRap
;TIME:1652
;Filament used: 1.74213m
;Layer height: 0.2
;Generated with Cura_SteamEngine 2.5.0
M190 S60
M104 S200
M109 S200
; -- START GCODE --
;-- end of START GCODE --
;LAYER_COUNT:25
;LAYER:-6
M107
G0 F1800 X79.938 Y89.614 Z0.3
G1 F900 X80.149 Y89.438 E0.03427
G1 X80.361 Y89.271 E0.06793
G1 X80.591 Y89.1 E0.10368
G1 X80.737 Y88.999 E0.12582
G1 X80.975 Y88.845 E0.16118
G1 X81.178 Y88.722 E0.19078
G1 X81.444 Y88.571 E0.22893
G1 X81.614 Y88.48 E0.25298
G1 X81.877 Y88.351 E0.28952
G1 X82.121 Y88.242 E0.32285
G1 X82.373 Y88.137 E0.3569
G1 X82.373 Y88.136 E0.35702
G1 X82.578 Y88.059 E0.38434
G1 X82.852 Y87.963 E0.42055
G1 X83.065 Y87.897 E0.44836
G1 X83.065 Y87.896 E0.44849
G1 X83.323 Y87.824 E0.48189
G1 X83.531 Y87.772 E0.50864
G1 X83.846 Y87.703 E0.54886
G1 X84.045 Y87.666 E0.5741
G1 X84.242 Y87.634 E0.59899
G1 X85.916 Y87.391 E0.80997
G1 X86.223 Y87.358 E0.84848
G1 X86.33 Y87.35 E0.86187
G1 X86.914 Y87.342 E0.93471
G1 X86.991 Y87.346 E0.94433
G1 X87.606 Y87.415 E1.02152
G1 X87.676 Y87.427 E1.03038
G1 X88.717 Y87.675 E1.16385
G1 X89.263 Y87.367 E1.24204
G1 X89.313 Y87.344 E1.2489
G1 X89.796 Y87.14 E1.3143
G1 X89.852 Y87.12 E1.32171
G1 X90.343 Y86.971 E1.38571
G1 X90.407 Y86.955 E1.39394
G1 X90.901 Y86.861 E1.45666
G1 X90.996 Y86.849 E1.4686
G1 X91.306 Y86.818 E1.50746
G1 X92.382 Y86.741 E1.64201
G1 X92.462 Y86.735 E1.65201
G1 X93.586 Y86.67 E1.79244
G1 X93.637 Y86.667 E1.79881
G1 X94.742 Y86.615 E1.93679
G1 X94.742 Y86.616 E1.93691
G1 X95.98 Y86.575 E2.09141
G1 X96.036 Y86.573 E2.0984
G1 X97.177 Y86.55 E2.24074
G1 X97.238 Y86.549 E2.24835
G1 X98.378 Y86.54 E2.39054
G1 X98.427 Y86.54 E2.39665
G1 X99.561 Y86.545 E2.53809
G1 X99.627 Y86.546 E2.54632
G1 X100.766 Y86.566 E2.68841
G1 X100.928 Y86.57 E2.70862
G1 X101.977 Y86.605 E2.83953
G1 X102.026 Y86.607 E2.84564
G1 X103.172 Y86.656 E2.98871
G1 X103.249 Y86.659 E2.99832
G1 X104.369 Y86.723 E3.13824
G1 X105.588 Y86.808 E3.29065
G1 X105.614 Y86.811 E3.29392
G1 X106.79 Y86.906 E3.44107
G1 X106.827 Y86.91 E3.44571
G1 X107.799 Y87.003 E3.5675
G1 X109.144 Y87.146 E3.7362
G1 X109.209 Y87.154 E3.74437
G1 X110.347 Y87.292 E3.88735
G1 X110.399 Y87.298 E3.89387
G1 X110.399 Y87.299 E3.894
G1 X111.54 Y87.453 E4.0376
G1 X111.54 Y87.452 E4.03773
G1 X111.592 Y87.459 E4.04427
G1 X111.592 Y87.46 E4.0444
G1 X112.772 Y87.635 E4.19318
G1 X112.949 Y87.665 E4.21557
G1 X113.188 Y87.709 E4.24588
G1 X113.469 Y87.771 E4.28177
G1 X113.687 Y87.828 E4.30988
G1 X113.941 Y87.899 E4.34277
G1 X113.941 Y87.898 E4.3429
G1 X114.125 Y87.956 E4.36696
G1 X114.434 Y88.064 E4.40779
G1 X114.617 Y88.133 E4.43218
G1 X114.879 Y88.242 E4.46757
G1 X115.123 Y88.351 E4.5009
G1 X115.386 Y88.48 E4.53744
G1 X115.556 Y88.571 E4.56149
G1 X115.81 Y88.715 E4.59791
G1 X116.025 Y88.845 E4.62925
G1 X116.251 Y88.991 E4.6628
G1 X116.409 Y89.1 E4.68674
G1 X116.639 Y89.271 E4.72249
G1 X116.841 Y89.43 E4.75455
G1 X117.062 Y89.614 E4.79042
G1 X117.253 Y89.785 E4.8224
G1 X117.405 Y89.927 E4.84834
G1 X117.574 Y90.096 E4.87815
G1 X117.807 Y90.344 E4.92059
G1 X117.957 Y90.514 E4.94887
G1 X118.105 Y90.692 E4.97774
G1 X118.255 Y90.884 E5.00813
G1 X118.45 Y91.148 E5.04907
G1 X118.568 Y91.319 E5.07498
G1 X118.708 Y91.536 E5.10719
G1 X118.841 Y91.756 E5.13925
G1 X118.963 Y91.974 E5.17041
G1 X119.082 Y92.203 E5.2026
G1 X119.208 Y92.46 E5.2383
G1 X119.294 Y92.65 E5.26431
G1 X119.403 Y92.914 E5.29994
G1 X119.493 Y93.153 E5.33179
G1 X119.58 Y93.404 E5.36492
G1 X119.638 Y93.59 E5.38922
G1 X119.72 Y93.885 E5.42741
G1 X119.778 Y94.119 E5.45748
G1 X119.836 Y94.383 E5.49119
G1 X119.882 Y94.634 E5.52302
G1 X119.921 Y94.899 E5.55643
G1 X119.951 Y95.139 E5.5866
G1 X119.973 Y95.385 E5.6174
G1 X119.989 Y95.64 E5.64927
G1 X119.998 Y95.919 E5.68409
G1 X119.998 Y96.16 E5.71415
G1 X119.989 Y96.439 E5.74896
G1 X119.976 Y96.657 E5.7762
G1 X119.951 Y96.94 E5.81164
G1 X119.922 Y97.181 E5.84191
G1 X119.921 Y97.181 E5.84204
G1 X119.882 Y97.443 E5.87507
G1 X119.839 Y97.678 E5.90487
G1 X119.779 Y97.953 E5.93998
G1 X119.78 Y97.953 E5.9401
G1 X119.721 Y98.19 E5.97056
G1 X119.641 Y98.482 E6.00833
G1 X119.587 Y98.655 E6.03093
G1 X119.488 Y98.939 E6.06844
G1 X119.414 Y99.133 E6.09434
G1 X119.293 Y99.43 E6.13434
G1 X119.215 Y99.604 E6.15812
G1 X119.088 Y99.864 E6.19421
G1 X118.978 Y100.076 E6.224
G1 X118.844 Y100.315 E6.25818
G1 X118.737 Y100.494 E6.28419
G1 X118.553 Y100.782 E6.32681
G1 X118.424 Y100.968 E6.35505
G1 X118.265 Y101.183 E6.3884
G1 X118.12 Y101.368 E6.41772
G1 X117.941 Y101.581 E6.45242
G1 X117.942 Y101.581 E6.45254
G1 X117.804 Y101.738 E6.47861
G1 X117.6 Y101.957 E6.51594
G1 X117.422 Y102.135 E6.54734
G1 X117.233 Y102.312 E6.57964
G1 X117.07 Y102.457 E6.60685
G1 X116.841 Y102.648 E6.64404
G1 X116.665 Y102.787 E6.67201
G1 X116.436 Y102.956 E6.70751
G1 X114.513 Y104.291 E6.99949
G1 X116.422 Y105.61 E7.2889
G1 X116.65 Y105.779 E7.32429
G1 X116.841 Y105.929 E7.35459
G1 X117.062 Y106.113 E7.39045
G1 X117.253 Y106.284 E7.42243
G1 X117.405 Y106.426 E7.44837
G1 X117.574 Y106.595 E7.47818
G1 X117.807 Y106.843 E7.52062
G1 X117.957 Y107.013 E7.5489
G1 X118.105 Y107.191 E7.57777
G1 X118.255 Y107.383 E7.60816
G1 X118.45 Y107.647 E7.6491
G1 X118.568 Y107.818 E7.67501
G1 X118.708 Y108.035 E7.70722
G1 X118.841 Y108.255 E7.73929
G1 X118.963 Y108.473 E7.77044
G1 X119.082 Y108.702 E7.80263
G1 X119.208 Y108.959 E7.83833
G1 X119.294 Y109.149 E7.86434
G1 X119.403 Y109.413 E7.89997
G1 X119.493 Y109.652 E7.93182
G1 X119.58 Y109.903 E7.96495
G1 X119.638 Y110.089 E7.98925
G1 X119.72 Y110.384 E8.02744
G1 X119.778 Y110.618 E8.05751
G1 X119.836 Y110.882 E8.09123
G1 X119.882 Y111.133 E8.12305
G1 X119.921 Y111.398 E8.15646
G1 X119.951 Y111.638 E8.18663
G1 X119.973 Y111.884 E8.21743
G1 X119.989 Y112.139 E8.2493
G1 X119.998 Y112.418 E8.28412
G1 X119.998 Y112.659 E8.31418
G1 X119.989 Y112.938 E8.34899
G1 X119.976 Y113.156 E8.37623
G1 X119.951 Y113.439 E8.41167
G1 X119.922 Y113.68 E8.44194
G1 X119.921 Y113.68 E8.44207
G1 X119.882 Y113.942 E8.4751
G1 X119.839 Y114.177 E8.5049
G1 X119.779 Y114.452 E8.54001
G1 X119.78 Y114.452 E8.54013
G1 X119.721 Y114.689 E8.5706
G1 X119.641 Y114.981 E8.60836
G1 X119.587 Y115.154 E8.63096
G1 X119.488 Y115.438 E8.66847
G1 X119.414 Y115.632 E8.69437
G1 X119.293 Y115.929 E8.73437
G1 X119.215 Y116.103 E8.75815
G1 X119.088 Y116.363 E8.79424
G1 X118.978 Y116.575 E8.82403
G1 X118.844 Y116.814 E8.85821
G1 X118.737 Y116.993 E8.88422
G1 X118.555 Y117.276 E8.92619
G1 X118.424 Y117.466 E8.95497
G1 X118.263 Y117.684 E8.98877
G1 X118.118 Y117.871 E9.01829
G1 X118.117 Y117.87 E9.01846
G1 X117.955 Y118.065 E9.05008
G1 X117.804 Y118.238 E9.07872
G1 X117.603 Y118.454 E9.11552
G1 X117.422 Y118.635 E9.14745
G1 X117.233 Y118.812 E9.17975
G1 X117.07 Y118.957 E9.20696
G1 X116.841 Y119.148 E9.24415
G1 X116.665 Y119.287 E9.27212
G1 X116.436 Y119.456 E9.30762
G1 X114.513 Y120.791 E9.5996
G1 X116.422 Y122.11 E9.88901
G1 X116.65 Y122.279 E9.9244
G1 X116.841 Y122.429 E9.95469
G1 X117.062 Y122.613 E9.99056
G1 X117.253 Y122.784 E10.02254
G1 X117.405 Y122.926 E10.04848
G1 X117.574 Y123.095 E10.07829
G1 X117.807 Y123.343 E10.12073
G1 X117.957 Y123.513 E10.14901
G1 X118.105 Y123.691 E10.17788
G1 X118.255 Y123.883 E10.20827
G1 X118.45 Y124.147 E10.24921
G1 X118.568 Y124.318 E10.27512
G1 X118.708 Y124.535 E10.30733
G1 X118.841 Y124.755 E10.33939
G1 X118.963 Y124.973 E10.37055
G1 X119.082 Y125.202 E10.40274
G1 X119.208 Y125.459 E10.43844
G1 X119.294 Y125.649 E10.46445
G1 X119.403 Y125.913 E10.50008
G1 X119.493 Y126.152 E10.53193
G1 X119.58 Y126.403 E10.56506
G1 X119.638 Y126.589 E10.58936
G1 X119.72 Y126.884 E10.62755
G1 X119.778 Y127.118 E10.65762
G1 X119.836 Y127.382 E10.69133
G1 X119.882 Y127.633 E10.72316
G1 X119.921 Y127.898 E10.75657
G1 X119.951 Y128.138 E10.78674
G1 X119.973 Y128.384 E10.81754
G1 X119.989 Y128.639 E10.84941
G1 X119.998 Y128.918 E10.88423
G1 X119.998 Y129.159 E10.91429
G1 X119.989 Y129.438 E10.9491
G1 X119.976 Y129.656 E10.97634
G1 X119.951 Y129.939 E11.01177
G1 X119.922 Y130.18 E11.04205
G1 X119.921 Y130.18 E11.04218
G1 X119.882 Y130.442 E11.07521
G1 X119.839 Y130.677 E11.10501
G1 X119.779 Y130.952 E11.14012
G1 X119.78 Y130.952 E11.14024
G1 X119.721 Y131.189 E11.1707
G1 X119.641 Y131.481 E11.20847
G1 X119.587 Y131.654 E11.23107
G1 X119.488 Y131.938 E11.26858
G1 X119.414 Y132.132 E11.29448
G1 X119.293 Y132.429 E11.33448
G1 X119.215 Y132.603 E11.35826
G1 X119.088 Y132.863 E11.39435
G1 X118.978 Y133.075 E11.42414
G1 X118.844 Y133.314 E11.45832
G1 X118.737 Y133.493 E11.48433
G1 X118.555 Y133.776 E11.52629
G1 X118.424 Y133.966 E11.55508
G1 X118.263 Y134.184 E11.58888
G1 X118.118 Y134.371 E11.61839
G1 X118.117 Y134.37 E11.61857
G1 X117.955 Y134.565 E11.65019
G1 X117.804 Y134.738 E11.67883
G1 X117.603 Y134.954 E11.71563
G1 X117.422 Y135.135 E11.74756
G1 X117.233 Y135.312 E11.77985
G1 X117.07 Y135.457 E11.80707
G1 X116.841 Y135.648 E11.84426
G1 X116.673 Y135.78 E11.87091
G1 X116.448 Y135.947 E11.90585
G1 X116.245 Y136.089 E11.93675
G1 X115.997 Y136.251 E11.9737
G1 X115.819 Y136.359 E11.99967
G1 X115.567 Y136.501 E12.03575
G1 X115.359 Y136.61 E12.06503
G1 X115.359 Y136.609 E12.06516
G1 X115.115 Y136.729 E12.09907
G1 X114.922 Y136.817 E12.12553
G1 X114.618 Y136.944 E12.16662
G1 X114.413 Y137.022 E12.19398
G1 X114.158 Y137.113 E12.22775
G1 X113.925 Y137.184 E12.25813
G1 X113.665 Y137.256 E12.29178
G1 X113.43 Y137.314 E12.32197
G1 X113.167 Y137.371 E12.35553
G1 X113.167 Y137.372 E12.35566
G1 X112.926 Y137.417 E12.38624
G1 X112.926 Y137.416 E12.38636
G1 X112.764 Y137.444 E12.40687
G1 X111.678 Y137.605 E12.5438
G1 X111.678 Y137.606 E12.54392
G1 X111.61 Y137.615 E12.55248
G1 X110.505 Y137.765 E12.69156
G1 X109.322 Y137.91 E12.84022
G1 X109.322 Y137.909 E12.84034
G1 X109.27 Y137.915 E12.84687
G1 X108.148 Y138.039 E12.98767
G1 X108.09 Y138.045 E12.99494
G1 X107.116 Y138.142 E13.11702
G1 X106.729 Y139.258 E13.26435
G1 X106.647 Y139.476 E13.2934
G1 X106.55 Y139.715 E13.32557
G1 X106.446 Y139.948 E13.35739
G1 X106.322 Y140.206 E13.3931
G1 X106.226 Y140.394 E13.41942
G1 X106.087 Y140.645 E13.45521
G1 X105.987 Y140.816 E13.47992
G1 X105.837 Y141.055 E13.51511
G1 X105.717 Y141.234 E13.54199
G1 X105.368 Y141.695 E13.61411
G1 X105.348 Y141.719 E13.618
G1 X104.779 Y142.281 E13.71775
G1 X104.754 Y142.302 E13.72183
G1 X104.089 Y142.77 E13.82325
G1 X104.059 Y142.787 E13.82755
G1 X103.455 Y143.085 E13.91155
G1 X103.443 Y143.09 E13.91318
G1 X102.691 Y143.328 E14.01155
G1 X102.662 Y143.335 E14.01528
G1 X101.986 Y143.441 E14.10062
G1 X101.959 Y143.443 E14.104
G1 X101.193 Y143.446 E14.19954
G1 X101.159 Y143.444 E14.20379
G1 X100.385 Y143.32 E14.30155
G1 X100.345 Y143.311 E14.30667
G1 X99.673 Y143.092 E14.39482
G1 X99.633 Y143.075 E14.40024
G1 X98.522 Y142.508 E14.55582
G1 X97.286 Y143.107 E14.72713
G1 X97.241 Y143.125 E14.73317
G1 X96.537 Y143.338 E14.82491
G1 X96.493 Y143.347 E14.83051
G1 X95.724 Y143.451 E14.9273
G1 X95.679 Y143.453 E14.93292
G1 X95.014 Y143.441 E15.01587
G1 X94.996 Y143.44 E15.01812
G1 X94.276 Y143.32 E15.10916
G1 X94.221 Y143.307 E15.11621
G1 X93.462 Y143.049 E15.2162
G1 X93.416 Y143.028 E15.2225
G1 X92.811 Y142.71 E15.30775
G1 X92.779 Y142.689 E15.31252
G1 X92.178 Y142.244 E15.4058
G1 X92.149 Y142.219 E15.41057
G1 X91.611 Y141.67 E15.50644
G1 X91.588 Y141.641 E15.51106
G1 X91.271 Y141.216 E15.57719
G1 X91.157 Y141.044 E15.60293
G1 X91.021 Y140.827 E15.63487
G1 X90.913 Y140.644 E15.66137
G1 X90.774 Y140.394 E15.69705
G1 X90.678 Y140.206 E15.72338
G1 X90.554 Y139.948 E15.75908
G1 X90.45 Y139.715 E15.7909
G1 X90.353 Y139.476 E15.82308
G1 X90.271 Y139.258 E15.85213
G1 X89.884 Y138.142 E15.99945
G1 X88.91 Y138.045 E16.12153
G1 X88.851 Y138.039 E16.12893
G1 X87.729 Y137.915 E16.26973
G1 X87.676 Y137.909 E16.27638
G1 X86.497 Y137.765 E16.42452
G1 X85.39 Y137.615 E16.56386
G1 X85.322 Y137.606 E16.57241
G1 X85.322 Y137.605 E16.57254
G1 X84.236 Y137.444 E16.70947
G1 X84.074 Y137.416 E16.72997
G1 X84.074 Y137.417 E16.7301
G1 X83.833 Y137.372 E16.76068
G1 X83.833 Y137.371 E16.7608
G1 X83.57 Y137.314 E16.79437
G1 X83.335 Y137.256 E16.82456
G1 X83.075 Y137.184 E16.8582
G1 X82.842 Y137.113 E16.88858
G1 X82.587 Y137.022 E16.92235
G1 X82.382 Y136.944 E16.94971
G1 X82.078 Y136.817 E16.9908
G1 X81.885 Y136.729 E17.01726
G1 X81.641 Y136.609 E17.05117
G1 X81.641 Y136.61 E17.0513
G1 X81.433 Y136.501 E17.08059
G1 X81.181 Y136.359 E17.11667
G1 X81.003 Y136.251 E17.14263
G1 X80.755 Y136.089 E17.17958
G1 X80.552 Y135.947 E17.21048
G1 X80.327 Y135.78 E17.24543
G1 X80.159 Y135.648 E17.27208
G1 X79.93 Y135.457 E17.30927
G1 X79.767 Y135.312 E17.33648
G1 X79.578 Y135.135 E17.36877
G1 X79.397 Y134.954 E17.4007
G1 X79.196 Y134.738 E17.4375
G1 X79.045 Y134.565 E17.46614
G1 X78.883 Y134.37 E17.49776
G1 X78.882 Y134.371 E17.49794
G1 X78.737 Y134.184 E17.52745
G1 X78.576 Y133.966 E17.56125
G1 X78.445 Y133.776 E17.59004
G1 X78.263 Y133.493 E17.63201
G1 X78.156 Y133.314 E17.65802
G1 X78.022 Y133.075 E17.69219
G1 X77.912 Y132.863 E17.72198
G1 X77.785 Y132.603 E17.75807
G1 X77.707 Y132.429 E17.78185
G1 X77.586 Y132.132 E17.82185
G1 X77.512 Y131.938 E17.84775
G1 X77.413 Y131.654 E17.88526
G1 X77.359 Y131.481 E17.90787
G1 X77.279 Y131.189 E17.94563
G1 X77.22 Y130.952 E17.97609
G1 X77.221 Y130.952 E17.97622
G1 X77.161 Y130.677 E18.01132
G1 X77.118 Y130.442 E18.04112
G1 X77.079 Y130.18 E18.07416
G1 X77.078 Y130.18 E18.07428
G1 X77.049 Y129.939 E18.10456
G1 X77.024 Y129.656 E18.13999
G1 X77.011 Y129.438 E18.16723
G1 X77.002 Y129.159 E18.20205
G1 X77.002 Y128.918 E18.23211
G1 X77.011 Y128.639 E18.26692
G1 X77.024 Y128.422 E18.29404
G1 X77.049 Y128.138 E18.3296
G1 X77.079 Y127.898 E18.35976
G1 X77.115 Y127.65 E18.39102
G1 X77.161 Y127.398 E18.42297
G1 X77.222 Y127.118 E18.45871
G1 X77.28 Y126.884 E18.48878
G1 X77.358 Y126.603 E18.52515
G1 X77.415 Y126.418 E18.5493
G1 X77.507 Y126.152 E18.5844
G1 X77.597 Y125.913 E18.61626
G1 X77.706 Y125.649 E18.65188
G1 X77.792 Y125.459 E18.67789
G1 X77.913 Y125.212 E18.7122
G1 X78.037 Y124.973 E18.74578
G1 X78.151 Y124.769 E18.77493
G1 X78.284 Y124.548 E18.8071
G1 X78.432 Y124.318 E18.84121
G1 X78.551 Y124.146 E18.8673
G1 X78.738 Y123.892 E18.90664
G1 X78.886 Y123.702 E18.93668
G1 X79.043 Y123.513 E18.96732
G1 X79.193 Y123.343 E18.9956
G1 X79.426 Y123.095 E19.03804
G1 X79.595 Y122.926 E19.06785
G1 X79.747 Y122.784 E19.0938
G1 X79.938 Y122.613 E19.12577
G1 X80.149 Y122.437 E19.16004
G1 X80.35 Y122.279 E19.19193
G1 X80.578 Y122.11 E19.22733
G1 X82.487 Y120.791 E19.51673
G1 X80.564 Y119.456 E19.80871
G1 X80.335 Y119.287 E19.84421
G1 X80.159 Y119.148 E19.87218
G1 X79.93 Y118.957 E19.90938
G1 X79.767 Y118.812 E19.93659
G1 X79.578 Y118.635 E19.96888
G1 X79.397 Y118.454 E20.00081
G1 X79.196 Y118.238 E20.03761
G1 X79.045 Y118.065 E20.06625
G1 X78.883 Y117.87 E20.09787
G1 X78.882 Y117.871 E20.09805
G1 X78.737 Y117.684 E20.12756
G1 X78.576 Y117.466 E20.16136
G1 X78.445 Y117.276 E20.19015
G1 X78.263 Y116.993 E20.23211
G1 X78.156 Y116.814 E20.25812
G1 X78.022 Y116.575 E20.2923
G1 X77.912 Y116.363 E20.32209
G1 X77.785 Y116.103 E20.35818
G1 X77.707 Y115.929 E20.38196
G1 X77.586 Y115.632 E20.42196
G1 X77.512 Y115.438 E20.44786
G1 X77.413 Y115.154 E20.48537
G1 X77.359 Y114.981 E20.50798
G1 X77.279 Y114.689 E20.54574
G1 X77.22 Y114.452 E20.5762
G1 X77.221 Y114.452 E20.57632
G1 X77.161 Y114.177 E20.61143
G1 X77.118 Y113.942 E20.64123
G1 X77.079 Y113.68 E20.67427
G1 X77.078 Y113.68 E20.67439
G1 X77.049 Y113.439 E20.70467
G1 X77.024 Y113.156 E20.7401
G1 X77.011 Y112.938 E20.76734
G1 X77.002 Y112.659 E20.80216
G1 X77.002 Y112.418 E20.83222
G1 X77.011 Y112.139 E20.86703
G1 X77.024 Y111.922 E20.89415
G1 X77.049 Y111.638 E20.9297
G1 X77.079 Y111.398 E20.95987
G1 X77.115 Y111.15 E20.99113
G1 X77.161 Y110.898 E21.02308
G1 X77.222 Y110.618 E21.05882
G1 X77.28 Y110.384 E21.08889
G1 X77.358 Y110.103 E21.12526
G1 X77.415 Y109.918 E21.14941
G1 X77.507 Y109.652 E21.18451
G1 X77.597 Y109.413 E21.21637
G1 X77.706 Y109.149 E21.25199
G1 X77.792 Y108.959 E21.278
G1 X77.913 Y108.712 E21.31231
G1 X78.037 Y108.473 E21.34589
G1 X78.151 Y108.269 E21.37504
G1 X78.284 Y108.048 E21.40721
G1 X78.432 Y107.818 E21.44132
G1 X78.551 Y107.646 E21.46741
G1 X78.738 Y107.392 E21.50675
G1 X78.886 Y107.202 E21.53679
