;FLAVOR:RepRap
;TIME:798
;Generated with Cura_SteamEngine 2.3.1
M190 S60
M104 S190
M109 S190

;LAYER_COUNT:25
;LAYER:0
M107
M205 X12
G1 F1500 E-1
G0 F1600 X80.315 Y72.336 Z.299
;TYPE:SKIRT
G1 F1500 E0
G1 F1800 X80.73 Y71.915 E0.02939
G1 X81.153 Y71.558 E0.05692
G1 X81.896 Y71.041 E0.10193
G1 X82.439 Y70.741 E0.13277
G1 X83.131 Y70.448 E0.17014
G1 X83.781 Y70.256 E0.20384
G1 X85.703 Y69.918 E0.30088
G1 X85.914 Y69.889 E0.31147
G1 X92.271 Y69.231 E0.62925
G1 X92.456 Y69.218 E0.63847
G1 X96.939 Y69.032 E0.86158
G1 X97.088 Y69.029 E0.86899
G1 X101.51 Y69.066 E1.08887
G1 X101.664 Y69.071 E1.09653
G1 X106.291 Y69.347 E1.32702
G1 X106.445 Y69.36 E1.3347
G1 X110.964 Y69.864 E1.5608
G1 X111.134 Y69.888 E1.56933
G1 X113.088 Y70.22 E1.66789
G1 X113.602 Y70.356 E1.69432
G1 X114.132 Y70.547 E1.72234
G1 X114.596 Y70.76 E1.74772
G1 X115.29 Y71.154 E1.7874
G1 X115.856 Y71.57 E1.82233
G1 X116.64 Y72.302 E1.87567
G1 X117.066 Y72.797 E1.90814
G1 X117.421 Y73.314 E1.93932
G1 X117.67 Y73.75 E1.96429
G1 X117.981 Y74.421 E2.00106
G1 X118.168 Y74.951 E2.02901
G1 X118.349 Y75.67 E2.06588
G1 X118.439 Y76.308 E2.09792
G1 X118.47 Y77.302 E2.14736
G1 X118.466 Y77.563 E2.16034
G1 X118.082 Y84.454 E2.50352
G1 X118.116 Y89.936 E2.77611
G1 X118.482 Y96.026 E3.07948
G1 X118.483 Y96.358 E3.09599
G1 X118.156 Y102.79 E3.41623
G1 X118.2 Y108.299 E3.69016
G1 X118.469 Y113.502 E3.94922
G1 X118.454 Y113.992 E3.9736
G1 X118.401 Y114.312 E3.98973
G1 X118.168 Y115.354 E4.04282
G1 X117.935 Y116.016 E4.07772
G1 X117.591 Y116.72 E4.11668
G1 X117.207 Y117.315 E4.15189
G1 X116.493 Y118.178 E4.20758
G1 X116.152 Y118.529 E4.23192
G1 X115.946 Y118.693 E4.24501
G1 X115.261 Y119.191 E4.28712
G1 X114.774 Y119.479 E4.31525
G1 X109.358 Y122.027 E4.61287
G1 X104.171 Y124.836 E4.90618
G1 X102.751 Y125.618 E4.98679
G1 X102.305 Y125.818 E5.01109
G1 X101.831 Y125.943 E5.03547
G1 X101.299 Y125.99 E5.06202
G1 X95.643 Y125.98 E5.34326
G1 X95.155 Y125.939 E5.36761
G1 X94.68 Y125.82 E5.39196
G1 X94.204 Y125.61 E5.41783
G1 X88.11 Y122.263 E5.76354
G1 X82.128 Y119.423 E6.09281
G1 X81.579 Y119.086 E6.12484
G1 X80.899 Y118.56 E6.16759
G1 X80.426 Y118.103 E6.20029
G1 X79.866 Y117.428 E6.24391
G1 X79.547 Y116.96 E6.27207
G1 X79.233 Y116.39 E6.30443
G1 X79.022 Y115.913 E6.33036
G1 X78.786 Y115.223 E6.36662
G1 X78.658 Y114.695 E6.39364
G1 X78.551 Y113.979 E6.42963
G1 X78.523 Y113.364 E6.46025
G1 X78.751 Y109.391 E6.65812
G1 X78.86 Y103.869 E6.93275
G1 X78.798 Y101.15 E7.06799
G1 X78.531 Y95.941 E7.32734
G1 X78.532 Y95.617 E7.34345
G1 X78.917 Y88.835 E7.68122
G1 X78.888 Y83.346 E7.95416
G1 X78.525 Y77.438 E8.24848
G1 X78.521 Y77.143 E8.26315
G1 X78.55 Y76.36 E8.30211
G1 X78.625 Y75.797 E8.33035
G1 X78.784 Y75.107 E8.36556
G1 X78.951 Y74.595 E8.39234
G1 X79.242 Y73.919 E8.42894
G1 X79.521 Y73.413 E8.45767
G1 X79.974 Y72.75 E8.4976
G1 X80.315 Y72.336 E8.52427
G0 F1600 X80.599 Y72.617
G1 F1800 X81.014 Y72.196 E8.55366
G1 X81.381 Y71.887 E8.57752
G1 X82.124 Y71.37 E8.62252
G1 X82.595 Y71.11 E8.64928
G1 X83.287 Y70.817 E8.68664
G1 X83.851 Y70.65 E8.71589
G1 X85.773 Y70.312 E8.81293
G1 X85.955 Y70.287 E8.82206
G1 X92.312 Y69.629 E9.13984
G1 X92.472 Y69.617 E9.14782
G1 X96.955 Y69.431 E9.37093
G1 X97.085 Y69.429 E9.37739
G1 X101.507 Y69.466 E9.59728
G1 X101.64 Y69.471 E9.6039
G1 X106.267 Y69.747 E9.83438
G1 X106.4 Y69.758 E9.84101
G1 X110.919 Y70.262 E10.06711
G1 X111.067 Y70.283 E10.07454
G1 X113.021 Y70.615 E10.17309
G1 X113.466 Y70.732 E10.19597
G1 X113.996 Y70.923 E10.22399
G1 X114.399 Y71.108 E10.24604
G1 X115.093 Y71.502 E10.28572
G1 X115.583 Y71.863 E10.31598
G1 X116.367 Y72.595 E10.36931
G1 X116.736 Y73.023 E10.39741
G1 X117.091 Y73.54 E10.4286
G1 X117.307 Y73.919 E10.45029
G1 X117.618 Y74.59 E10.48706
G1 X117.78 Y75.048 E10.51122
G1 X117.961 Y75.767 E10.54809
G1 X118.039 Y76.321 E10.57591
G1 X118.07 Y77.315 E10.62536
G1 X118.067 Y77.541 E10.63659
G1 X117.682 Y84.45 E10.98067
G1 X117.717 Y89.963 E11.2548
G1 X118.082 Y96.05 E11.55802
G1 X118.084 Y96.338 E11.57234
G1 X117.756 Y102.79 E11.89357
G1 X117.8 Y108.3 E12.16756
G1 X118.07 Y113.523 E12.42761
G1 X118.053 Y113.978 E12.45025
G1 X118.01 Y114.224 E12.46267
G1 X117.777 Y115.266 E12.51576
G1 X117.576 Y115.84 E12.546
G1 X117.232 Y116.544 E12.58496
G1 X116.899 Y117.06 E12.6155
G1 X116.185 Y117.923 E12.67119
G1 X115.711 Y118.369 E12.70356
G1 X115.026 Y118.867 E12.74567
G1 X114.604 Y119.117 E12.77006
G1 X109.176 Y121.671 E13.06834
G1 X103.962 Y124.494 E13.36316
G1 X102.558 Y125.267 E13.44286
G1 X102.141 Y125.451 E13.46552
G1 X101.699 Y125.56 E13.48816
G1 X101.299 Y125.59 E13.5081
G1 X95.643 Y125.58 E13.78934
G1 X95.19 Y125.539 E13.81196
G1 X94.75 Y125.42 E13.83462
G1 X94.396 Y125.259 E13.85396
G1 X88.296 Y121.909 E14.20001
G1 X82.3 Y119.062 E14.53005
G1 X81.824 Y118.77 E14.55782
G1 X81.144 Y118.244 E14.60057
G1 X80.734 Y117.847 E14.62895
G1 X80.174 Y117.172 E14.67256
G1 X79.898 Y116.767 E14.69693
G1 X79.584 Y116.197 E14.72928
G1 X79.401 Y115.783 E14.75179
G1 X79.165 Y115.093 E14.78805
G1 X79.054 Y114.636 E14.81144
G1 X78.947 Y113.92 E14.84743
G1 X78.922 Y113.387 E14.87397
G1 X79.151 Y109.395 E15.07279
G1 X79.26 Y103.86 E15.34807
G1 X79.199 Y101.166 E15.48206
G1 X78.93 Y95.92 E15.74325
G1 X78.931 Y95.64 E15.75717
G1 X79.317 Y88.84 E16.09584
G1 X79.288 Y83.338 E16.36943
G1 X78.924 Y77.414 E16.66455
G1 X78.921 Y77.158 E16.67728
G1 X78.95 Y76.375 E16.71624
G1 X79.014 Y75.887 E16.74071
G1 X79.173 Y75.197 E16.77592
G1 X79.319 Y74.753 E16.79916
G1 X79.61 Y74.077 E16.83575
G1 X79.851 Y73.638 E16.86066
G1 X80.304 Y72.975 E16.90058
G1 X80.599 Y72.617 E16.92365
G0 F1600 X80.884 Y72.898
G1 F1800 X81.299 Y72.477 E16.95304
G1 X81.609 Y72.215 E16.97323
G1 X82.352 Y71.698 E17.01823
G1 X82.751 Y71.478 E17.04089
G1 X83.443 Y71.185 E17.07826
G1 X83.92 Y71.044 E17.10299
G1 X85.842 Y70.706 E17.20003
G1 X85.996 Y70.685 E17.20775
G1 X92.353 Y70.027 E17.52554
G1 X92.489 Y70.017 E17.53232
G1 X96.972 Y69.831 E17.75542
G1 X97.081 Y69.829 E17.76084
G1 X101.503 Y69.866 E17.98073
G1 X101.616 Y69.87 E17.98635
G1 X106.243 Y70.146 E18.21683
G1 X106.356 Y70.156 E18.22247
G1 X110.875 Y70.66 E18.44857
G1 X111 Y70.677 E18.45484
G1 X112.954 Y71.009 E18.5534
G1 X113.331 Y71.108 E18.57278
G1 X113.861 Y71.299 E18.60079
G1 X114.201 Y71.456 E18.61941
G1 X114.895 Y71.85 E18.65909
G1 X115.31 Y72.155 E18.6847
G1 X116.094 Y72.887 E18.73804
G1 X116.407 Y73.25 E18.76187
G1 X116.762 Y73.767 E18.79305
G1 X116.944 Y74.087 E18.81136
G1 X117.255 Y74.758 E18.84813
G1 X117.392 Y75.146 E18.86859
G1 X117.573 Y75.865 E18.90546
G1 X117.639 Y76.333 E18.92896
G1 X117.67 Y77.327 E18.97841
G1 X117.668 Y77.519 E18.98796
G1 X117.281 Y84.447 E19.33298
G1 X117.317 Y89.971 E19.60766
G1 X117.683 Y96.074 E19.91167
G1 X117.684 Y96.318 E19.92381
G1 X117.355 Y102.773 E20.24519
G1 X117.401 Y108.324 E20.52122
G1 X117.67 Y113.544 E20.78112
G1 X117.62 Y114.137 E20.81071
G1 X117.387 Y115.179 E20.8638
G1 X117.217 Y115.665 E20.8894
G1 X116.873 Y116.369 E20.92837
G1 X116.591 Y116.805 E20.95418
G1 X115.877 Y117.668 E21.00988
G1 X115.476 Y118.045 E21.03725
G1 X114.791 Y118.543 E21.07936
G1 X114.434 Y118.755 E21.1
G1 X109.001 Y121.311 E21.39856
G1 X103.771 Y124.143 E21.69429
G1 X102.365 Y124.917 E21.7741
G1 X101.981 Y125.083 E21.7949
G1 X101.571 Y125.174 E21.81578
G1 X101.3 Y125.19 E21.82928
G1 X95.644 Y125.18 E22.11052
G1 X95.227 Y125.139 E22.13135
G1 X94.825 Y125.02 E22.1522
G1 X94.589 Y124.908 E22.16519
G1 X88.481 Y121.553 E22.5117
G1 X82.471 Y118.7 E22.84251
G1 X82.069 Y118.453 E22.86597
G1 X81.389 Y117.927 E22.90871
G1 X81.042 Y117.592 E22.9327
G1 X80.482 Y116.917 E22.97631
G1 X80.248 Y116.574 E22.99695
G1 X79.934 Y116.004 E23.02931
G1 X79.779 Y115.654 E23.04835
G1 X79.543 Y114.964 E23.08461
G1 X79.449 Y114.577 E23.10441
G1 X79.342 Y113.861 E23.14041
G1 X79.322 Y113.41 E23.16285
G1 X79.549 Y109.453 E23.35994
G1 X79.659 Y103.843 E23.63894
G1 X79.598 Y101.126 E23.77407
G1 X79.33 Y95.9 E24.03427
G1 X79.331 Y95.662 E24.04611
G1 X79.717 Y88.86 E24.38487
G1 X79.688 Y83.328 E24.65995
G1 X79.323 Y77.389 E24.95582
G1 X79.321 Y77.173 E24.96656
G1 X79.35 Y76.39 E25.00552
G1 X79.404 Y75.977 E25.02623
G1 X79.563 Y75.287 E25.06144
G1 X79.686 Y74.911 E25.08111
G1 X79.977 Y74.235 E25.1177
G1 X80.182 Y73.864 E25.13878
G1 X80.635 Y73.201 E25.17871
G1 X80.884 Y72.898 E25.19821
G1 F1500 E24.19821
G0 F1600 X80.838 Y96.012
G0 X80.939 Y97.13
G0 X81.306 Y98.191
G0 X86.053 Y108.519
G0 X86.182 Y109.414
G0 X86.591 Y109.415
G0 X86.58 Y109.316
;TYPE:WALL-OUTER
G1 F1500 E25.19821
G1 F1800 X86.669 Y109.309 E25.20265
G1 X86.777 Y109.315 E25.20803
G1 X86.87 Y109.33 E25.21271
G1 X86.96 Y109.357 E25.21738
G1 X87.049 Y109.396 E25.22221
G1 X87.132 Y109.446 E25.22703
G1 X87.212 Y109.508 E25.23207
G1 X87.281 Y109.575 E25.23685
G1 X87.342 Y109.652 E25.24173
G1 X87.393 Y109.735 E25.24658
G1 X87.431 Y109.82 E25.25121
G1 X87.461 Y109.918 E25.2563
G1 X87.478 Y110.002 E25.26056
G1 X87.485 Y110.12 E25.26644
G1 X87.478 Y110.41 E25.28087
G1 X87.461 Y110.503 E25.28557
G1 X87.431 Y110.599 E25.29057
G1 X87.393 Y110.684 E25.2952
G1 X87.347 Y110.761 E25.29966
G1 X87.283 Y110.842 E25.30479
G1 X87.215 Y110.91 E25.30957
G1 X87.136 Y110.972 E25.31457
G1 X87.06 Y111.018 E25.31898
G1 X86.968 Y111.06 E25.32401
G1 X86.878 Y111.088 E25.3287
G1 X86.785 Y111.105 E25.3334
G1 X86.672 Y111.112 E25.33903
G1 X85.482 Y111.113 E25.3982
G1 X85.313 Y111.12 E25.40661
G1 X85.128 Y111.144 E25.41589
G1 X84.946 Y111.182 E25.42513
G1 X84.766 Y111.237 E25.43449
G1 X84.593 Y111.307 E25.44377
G1 X84.426 Y111.393 E25.45311
G1 X84.268 Y111.49 E25.46233
G1 X84.117 Y111.601 E25.47165
G1 X83.978 Y111.724 E25.48088
G1 X83.847 Y111.859 E25.49023
G1 X83.731 Y112.006 E25.49954
G1 X83.626 Y112.16 E25.50881
G1 X83.535 Y112.323 E25.51809
G1 X83.458 Y112.493 E25.52737
G1 X83.396 Y112.67 E25.5367
G1 X83.348 Y112.852 E25.54606
G1 X83.318 Y113.036 E25.55533
G1 X83.302 Y113.221 E25.56456
G1 X83.302 Y113.41 E25.57396
G1 X83.319 Y113.596 E25.58324
G1 X83.35 Y113.78 E25.59252
G1 X83.398 Y113.96 E25.60179
G1 X83.462 Y114.137 E25.61114
G1 X83.538 Y114.306 E25.62036
G1 X83.63 Y114.469 E25.62967
G1 X83.735 Y114.624 E25.63897
G1 X83.852 Y114.769 E25.64824
G1 X83.983 Y114.905 E25.65763
G1 X84.123 Y115.027 E25.66686
G1 X84.274 Y115.138 E25.67618
G1 X84.433 Y115.236 E25.68547
G1 X84.6 Y115.319 E25.69474
G1 X84.774 Y115.389 E25.70407
G1 X84.953 Y115.443 E25.71336
G1 X85.135 Y115.481 E25.72261
G1 X85.321 Y115.504 E25.73193
G1 X85.496 Y115.512 E25.74064
G1 X111.518 Y115.511 E27.03455
G1 X111.687 Y115.503 E27.04297
G1 X111.872 Y115.48 E27.05224
G1 X112.054 Y115.441 E27.06149
G1 X112.234 Y115.387 E27.07084
G1 X112.407 Y115.316 E27.08013
G1 X112.574 Y115.232 E27.08943
G1 X112.732 Y115.134 E27.09867
G1 X112.883 Y115.023 E27.10799
G1 X113.023 Y114.899 E27.11729
G1 X113.153 Y114.764 E27.12661
G1 X113.269 Y114.618 E27.13588
G1 X113.374 Y114.463 E27.14519
G1 X113.465 Y114.3 E27.15448
G1 X113.542 Y114.131 E27.16371
G1 X113.604 Y113.953 E27.17308
G1 X113.652 Y113.771 E27.18244
G1 X113.682 Y113.588 E27.19166
G1 X113.698 Y113.403 E27.2009
G1 X113.698 Y113.214 E27.21029
G1 X113.681 Y113.028 E27.21958
G1 X113.65 Y112.844 E27.22886
G1 X113.602 Y112.662 E27.23822
G1 X113.538 Y112.487 E27.24748
G1 X113.462 Y112.317 E27.25674
G1 X113.37 Y112.153 E27.26609
G1 X113.265 Y112 E27.27532
G1 X113.148 Y111.854 E27.28462
G1 X113.017 Y111.719 E27.29398
G1 X112.877 Y111.597 E27.30321
G1 X112.726 Y111.486 E27.31253
G1 X112.567 Y111.388 E27.32182
G1 X112.4 Y111.304 E27.33111
G1 X112.226 Y111.235 E27.34042
G1 X112.047 Y111.181 E27.34972
G1 X111.865 Y111.143 E27.35896
G1 X111.679 Y111.12 E27.36828
G1 X111.504 Y111.112 E27.37699
G1 X91.666 Y111.11 E28.36341
G1 X91.572 Y111.102 E28.3681
G1 X91.471 Y111.082 E28.37322
G1 X91.387 Y111.053 E28.37764
G1 X91.298 Y111.01 E28.38256
G1 X91.218 Y110.959 E28.38727
G1 X91.141 Y110.896 E28.39222
G1 X91.074 Y110.825 E28.39708
G1 X91.018 Y110.751 E28.40169
G1 X90.967 Y110.661 E28.40683
G1 X90.932 Y110.579 E28.41127
G1 X90.891 Y110.403 E28.42025
G1 X90.885 Y110.308 E28.42499
G1 X90.885 Y109.568 E28.46178
G1 X90.894 Y109.466 E28.46687
G1 X90.939 Y109.289 E28.47595
G1 X91.023 Y109.13 E28.4849
G1 X91.083 Y109.052 E28.48979
G1 X91.143 Y108.99 E28.49408
G1 X91.216 Y108.929 E28.49881
G1 X91.294 Y108.879 E28.50342
G1 X91.376 Y108.839 E28.50795
G1 X91.46 Y108.809 E28.51239
G1 X91.628 Y108.778 E28.52088
G1 X92.713 Y108.701 E28.57497
G1 X93.854 Y108.635 E28.6318
G1 X94.992 Y108.583 E28.68844
G1 X96.132 Y108.545 E28.74516
G1 X97.271 Y108.522 E28.80181
G1 X98.411 Y108.513 E28.85849
G1 X99.548 Y108.518 E28.91503
G1 X100.688 Y108.538 E28.97173
G1 X101.826 Y108.574 E29.02834
G1 X102.966 Y108.624 E29.08508
G1 X104.103 Y108.688 E29.1417
G1 X105.243 Y108.768 E29.19853
G1 X106.377 Y108.861 E29.25511
G1 X107.511 Y108.97 E29.31175
G1 X108.645 Y109.093 E29.36847
G1 X109.779 Y109.23 E29.42527
G1 X110.905 Y109.382 E29.48176
G1 X112.083 Y109.558 E29.54099
G1 X112.32 Y109.602 E29.55297
G1 X112.542 Y109.658 E29.56436
G1 X112.746 Y109.721 E29.57498
G1 X112.961 Y109.804 E29.58644
G1 X113.175 Y109.901 E29.59812
G1 X113.367 Y110.002 E29.60891
G1 X113.573 Y110.128 E29.62091
G1 X113.761 Y110.258 E29.63228
G1 X113.932 Y110.392 E29.64308
G1 X114.112 Y110.552 E29.65506
G1 X114.266 Y110.706 E29.66589
G1 X114.425 Y110.887 E29.67786
G1 X114.56 Y111.059 E29.68874
G1 X114.689 Y111.246 E29.70003
G1 X114.813 Y111.453 E29.71203
G1 X114.92 Y111.657 E29.72349
G1 X115.009 Y111.855 E29.73428
G1 X115.09 Y112.069 E29.74566
G1 X115.162 Y112.3 E29.75769
G1 X115.214 Y112.51 E29.76845
G1 X115.255 Y112.735 E29.77982
G1 X115.283 Y112.962 E29.79119
G1 X115.298 Y113.203 E29.8032
G1 X115.298 Y113.42 E29.81399
G1 X115.284 Y113.649 E29.8254
G1 X115.255 Y113.886 E29.83727
G1 X115.214 Y114.114 E29.84879
G1 X115.162 Y114.324 E29.85954
G1 X115.09 Y114.554 E29.87153
G1 X115.014 Y114.758 E29.88235
G1 X114.92 Y114.967 E29.89375
G1 X114.808 Y115.181 E29.90576
G1 X114.696 Y115.367 E29.91655
G1 X114.559 Y115.566 E29.92857
G1 X114.425 Y115.737 E29.93937
G1 X114.275 Y115.908 E29.95068
G1 X114.104 Y116.078 E29.96267
G1 X113.933 Y116.231 E29.97408
G1 X113.761 Y116.366 E29.98495
G1 X113.573 Y116.496 E29.99632
G1 X113.377 Y116.615 E30.00772
G1 X113.164 Y116.728 E30.01971
G1 X112.967 Y116.817 E30.03046
G1 X112.75 Y116.9 E30.04201
G1 X112.526 Y116.97 E30.05368
G1 X112.311 Y117.024 E30.0647
G1 X112.074 Y117.068 E30.07669
G1 X110.957 Y117.234 E30.13284
G1 X109.834 Y117.385 E30.18918
G1 X108.705 Y117.523 E30.24574
G1 X107.576 Y117.646 E30.30221
G1 X106.447 Y117.756 E30.35861
G1 X105.318 Y117.85 E30.41494
G1 X104.183 Y117.929 E30.47152
G1 X103.049 Y117.995 E30.528
G1 X101.914 Y118.047 E30.5845
G1 X101.592 Y118.061 E30.60052
G1 X101.749 Y118.343 E30.60974
G1 X101.869 Y118.557 E30.62194
G1 X101.971 Y118.766 E30.63351
G1 X102.059 Y118.98 E30.64501
G1 X102.13 Y119.187 E30.65589
G1 X102.191 Y119.412 E30.66748
G1 X102.239 Y119.64 E30.67907
G1 X102.275 Y119.881 E30.69119
G1 X102.294 Y120.098 E30.70202
G1 X102.299 Y120.331 E30.71361
G1 X102.29 Y120.57 E30.7255
G1 X102.268 Y120.794 E30.73669
G1 X102.23 Y121.035 E30.74882
G1 X102.18 Y121.259 E30.76023
G1 X102.116 Y121.48 E30.77167
G1 X102.041 Y121.691 E30.78281
G1 X101.95 Y121.904 E30.79433
G1 X101.84 Y122.122 E30.80647
G1 X101.73 Y122.312 E30.81739
G1 X101.595 Y122.515 E30.82951
G1 X101.462 Y122.692 E30.84052
G1 X101.379 Y122.764 E30.84598
G1 X101.284 Y122.801 E30.85105
G1 X101.188 Y122.804 E30.85583
G1 X101.092 Y122.775 E30.86081
G1 X101.002 Y122.709 E30.86636
G1 X100.309 Y122.016 E30.91509
G1 X100.243 Y121.924 E30.92072
G1 X100.215 Y121.831 E30.92555
G1 X100.217 Y121.746 E30.92978
G1 X100.245 Y121.659 E30.93432
