;FLAVOR:RepRap
;TIME:5993
;Filament used: 7.84993m
;Layer height: 0.2
;Generated with Cura_SteamEngine 2.5.0
M190 S90
M104 S230
M109 S230

;LAYER_COUNT:196
;LAYER:-6
M107
G0 F1800 X76.758 Y82.894 Z0.3
G1 F900 X76.94 Y82.735 E0.03014
G1 X77.315 Y82.422 E0.09107
G1 X77.568 Y82.227 E0.13091
G1 X77.891 Y81.995 E0.18051
G1 X78.165 Y81.814 E0.22147
G1 X78.526 Y81.594 E0.27419
G1 X78.768 Y81.454 E0.30907
G1 X78.768 Y81.455 E0.30919
G1 X79.107 Y81.272 E0.35724
G1 X79.4 Y81.127 E0.39801
G1 X79.834 Y80.93 E0.45746
G1 X80.131 Y80.808 E0.49751
G1 X80.463 Y80.683 E0.54175
G1 X80.715 Y80.597 E0.57496
G1 X81.105 Y80.477 E0.62586
G1 X81.408 Y80.396 E0.66498
G1 X81.855 Y80.291 E0.72225
G1 X82.181 Y80.227 E0.76368
G1 X82.59 Y80.163 E0.81532
G1 X82.873 Y80.126 E0.85091
G1 X83.255 Y80.088 E0.89879
G1 X83.581 Y80.067 E0.93954
G1 X83.94 Y80.055 E0.98434
G1 X84.157 Y80.051 E1.01141
G1 X87.2 Y80.049 E1.39095
G1 X88.072 Y79.041 E1.55719
G1 X88.501 Y78.658 E1.62892
G1 X88.967 Y78.337 E1.6995
G1 X89.473 Y78.076 E1.77051
G1 X90.008 Y77.881 E1.84153
G1 X90.791 Y77.722 E1.94118
G1 X91.028 Y77.695 E1.97093
G1 X91.277 Y77.675 E2.00209
G1 X91.765 Y77.649 E2.06304
G1 X92.217 Y77.616 E2.11957
G1 X92.804 Y77.607 E2.19279
G1 X93.363 Y77.671 E2.26297
G1 X93.953 Y77.816 E2.33875
G1 X94.084 Y77.828 E2.35515
G1 X94.305 Y77.861 E2.38302
G1 X94.9 Y77.989 E2.45893
G1 X95.427 Y78.174 E2.5286
G1 X95.932 Y78.428 E2.5991
G1 X96.417 Y78.753 E2.67192
G1 X97.48 Y79.679 E2.84775
G1 X98.505 Y78.769 E3.01871
G1 X98.977 Y78.447 E3.08997
G1 X99.488 Y78.186 E3.16154
G1 X100.029 Y77.99 E3.23331
G1 X100.469 Y77.885 E3.28973
G1 X100.529 Y77.875 E3.29732
G1 X101.043 Y77.81 E3.36194
G1 X103.316 Y77.64 E3.64623
G1 X103.901 Y77.633 E3.7192
G1 X104.463 Y77.699 E3.78978
G1 X105.018 Y77.835 E3.86105
G1 X105.556 Y78.043 E3.93299
G1 X106.051 Y78.31 E4.00314
G1 X106.505 Y78.636 E4.07285
G1 X106.928 Y79.03 E4.14495
G1 X107.783 Y80.05 E4.31095
G1 X112.832 Y80.05 E4.94069
G1 X113.417 Y80.087 E5.0138
G1 X113.975 Y80.194 E5.08467
G1 X114.512 Y80.37 E5.15515
G1 X115.029 Y80.615 E5.22651
G1 X115.505 Y80.919 E5.29695
G1 X115.942 Y81.285 E5.36805
G1 X116.336 Y81.708 E5.44015
G1 X116.66 Y82.161 E5.50961
G1 X116.931 Y82.663 E5.58077
G1 X117.132 Y83.176 E5.64949
G1 X118.389 Y87.047 E6.15712
G1 X118.533 Y87.614 E6.23008
G1 X118.604 Y88.175 E6.30061
G1 X118.602 Y88.743 E6.37145
G1 X118.529 Y89.307 E6.44239
G1 X118.384 Y89.861 E6.51381
G1 X118.172 Y90.389 E6.58478
G1 X117.898 Y90.881 E6.65502
G1 X116.875 Y92.27 E6.87018
G1 X117.524 Y93.168 E7.00837
G1 X117.789 Y93.66 E7.07807
G1 X118.035 Y94.322 E7.16615
G1 X118.17 Y94.787 E7.22654
G1 X118.226 Y94.999 E7.25389
G1 X118.254 Y95.116 E7.2689
G1 X118.366 Y95.795 E7.35473
G1 X118.399 Y96.164 E7.40094
G1 X118.518 Y96.643 E7.4625
G1 X118.584 Y97.217 E7.53456
G1 X118.584 Y97.525 E7.57298
G1 X118.879 Y98.072 E7.65049
G1 X119.093 Y98.628 E7.7248
G1 X119.317 Y99.348 E7.81885
G1 X119.606 Y100.55 E7.97304
G1 X121.218 Y100.55 E8.1741
G1 X121.803 Y100.587 E8.24721
G1 X122.361 Y100.694 E8.31807
G1 X122.898 Y100.87 E8.38856
G1 X123.415 Y101.115 E8.45991
G1 X123.891 Y101.419 E8.53036
G1 X124.328 Y101.785 E8.60145
G1 X124.722 Y102.208 E8.67355
G1 X125.044 Y102.659 E8.74267
G1 X125.321 Y103.169 E8.81506
G1 X125.491 Y103.594 E8.87215
G1 X126.315 Y105.986 E9.1877
G1 X126.468 Y106.543 E9.25974
G1 X126.551 Y107.124 E9.33294
G1 X126.564 Y107.407 E9.36828
G1 X126.643 Y116.513 E10.50407
G1 X126.612 Y117.074 E10.57415
G1 X126.506 Y117.65 E10.6472
G1 X126.335 Y118.189 E10.71773
G1 X126.097 Y118.703 E10.78837
G1 X125.796 Y119.182 E10.85893
G1 X125.436 Y119.622 E10.92984
G1 X125.019 Y120.015 E11.00131
G1 X124.562 Y120.35 E11.07198
G1 X124.054 Y120.629 E11.14427
G1 X123.545 Y120.832 E11.21262
G1 X122.991 Y120.973 E11.28392
G1 X122.139 Y121.055 E11.39068
G1 X121.445 Y121.709 E11.50962
G1 X120.988 Y122.044 E11.58029
G1 X120.48 Y122.323 E11.65258
G1 X119.971 Y122.526 E11.72093
G1 X119.417 Y122.667 E11.79223
G1 X118.538 Y122.75 E11.90235
G1 X80.963 Y122.75 E16.58891
G1 X80.378 Y122.713 E16.66202
G1 X79.82 Y122.606 E16.73288
G1 X79.283 Y122.43 E16.80337
G1 X78.766 Y122.185 E16.87472
G1 X78.29 Y121.881 E16.94517
G1 X77.853 Y121.515 E17.01626
G1 X77.459 Y121.092 E17.08836
G1 X77.137 Y120.641 E17.15748
G1 X76.864 Y120.137 E17.22897
G1 X76.658 Y119.602 E17.30048
G1 X76.521 Y119.049 E17.37153
G1 X76.453 Y118.466 E17.44474
G1 X76.12 Y112.124 E18.23684
G1 X75.116 Y111.484 E18.38534
G1 X74.583 Y111.026 E18.47299
G1 X74.168 Y110.611 E18.5462
G1 X73.785 Y110.175 E18.61858
G1 X73.465 Y109.704 E18.6896
G1 X73.205 Y109.191 E18.76133
G1 X73.019 Y108.666 E18.8308
G1 X72.893 Y108.097 E18.90349
G1 X72.846 Y107.64 E18.96079
G1 X72.774 Y106.208 E19.13962
G1 X72.731 Y106.059 E19.15896
G1 X72.639 Y105.491 E19.23073
G1 X72.617 Y104.962 E19.29677
G1 X72.631 Y104.199 E19.39195
G1 X72.677 Y103.632 E19.4629
G1 X72.796 Y103.077 E19.5337
G1 X72.887 Y102.812 E19.56864
G1 X73.028 Y94.889 E20.557
G1 X72.944 Y94.606 E20.59382
G1 X72.852 Y94.035 E20.66596
G1 X72.831 Y93.507 E20.73186
G1 X72.845 Y92.751 E20.82617
G1 X72.891 Y92.183 E20.89725
G1 X73.008 Y91.634 E20.96726
G1 X73.116 Y91.326 E21.00797
G1 X73.148 Y90.462 E21.11581
G1 X73.161 Y90.244 E21.14305
G1 X73.195 Y89.852 E21.19212
G1 X73.252 Y89.413 E21.24734
G1 X73.304 Y89.104 E21.28642
G1 X73.365 Y88.797 E21.32546
G1 X73.464 Y88.366 E21.38061
G1 X73.545 Y88.063 E21.41973
G1 X73.67 Y87.648 E21.47379
G1 X73.771 Y87.353 E21.51268
G1 X73.894 Y87.031 E21.55567
G1 X74.003 Y86.767 E21.5913
G1 X74.196 Y86.337 E21.65008
G1 X74.362 Y85.999 E21.69705
G1 X74.539 Y85.67 E21.74365
G1 X74.662 Y85.456 E21.77443
G1 X74.905 Y85.064 E21.83196
G1 X75.089 Y84.786 E21.87354
G1 X75.321 Y84.462 E21.92324
G1 X75.515 Y84.209 E21.96301
G1 X75.768 Y83.905 E22.01233
G1 X75.966 Y83.682 E22.04953
G1 X76.255 Y83.374 E22.10221
G1 X76.511 Y83.122 E22.14701
G1 X76.758 Y82.894 E22.18894
G0 F1800 X78 Y81.922
G1 F900 X78 Y121.638 E27.14254
G0 F1800 X81 Y122.75
G1 F900 X81 Y80.509 E32.41107
G0 F1800 X84 Y80.053
G1 F900 X84 Y122.75 E37.73647
G0 F1800 X87 Y122.75
G1 F900 X87 Y80.049 E43.06238
G0 F1800 X90 Y77.883
G1 F900 X90 Y122.75 E48.65843
G0 F1800 X93 Y122.75
G1 F900 X93 Y77.63 E54.28605
G0 F1800 X96 Y78.474
G1 F900 X96 Y122.75 E59.8084
G0 F1800 X99 Y122.75
G1 F900 X99 Y78.435 E65.33561
G0 F1800 X102 Y77.738
G1 F900 X102 Y122.75 E70.94975
G0 F1800 X105 Y122.75
G1 F900 X105 Y77.831 E76.5523
G0 F1800 X108 Y80.05
G1 F900 X108 Y122.75 E81.87808
G0 F1800 X111 Y122.75
G1 F900 X111 Y80.05 E87.20385
G0 F1800 X114 Y80.203
G1 F900 X114 Y122.75 E92.51055
G0 F1800 X117 Y122.75
G1 F900 X117 Y92.443 E96.29061
G0 F1800 X117 Y92.101
G1 F900 X117 Y82.84 E97.44569
G0 F1800 X117.578 Y92.273
G0 X120 Y100.55
G1 F900 X120 Y122.515 E100.18529
G0 F1800 X123 Y120.971
G1 F900 X123 Y100.919 E102.68628
G0 F1800 X126 Y105.072
G1 F900 X126 Y118.858 E104.40575
G0 F1800 X75 Y111.384
G1 F900 X75 Y84.92 E107.70648
G0 F1800 X76.943 Y82.6
;TIME_ELAPSED:65.530521
;LAYER:-5
M140 S90
G0 X76.943 Y82.6 Z0.5
;TYPE:SUPPORT
G1 F2700 X77.245 Y82.348 E107.73265
G1 X77.52 Y82.137 E107.7557
G1 X77.737 Y81.98 E107.77352
G1 X118.6 Y122.843 E111.61766
G1 X119.431 Y122.765 E111.67318
G1 X119.833 Y122.661 E111.7008
G1 X78.605 Y81.433 E115.57928
G1 X78.729 Y81.361 E115.58882
G1 X79.046 Y81.19 E115.61278
G1 X79.369 Y81.03 E115.63676
G1 X79.539 Y80.953 E115.64917
G1 X120.828 Y122.242 E119.53339
G1 X121.046 Y122.122 E119.54994
G1 X121.505 Y121.788 E119.5877
G1 X121.65 Y121.65 E119.60102
G1 X80.547 Y80.547 E123.46774
G1 X80.684 Y80.5 E123.47737
G1 X81.071 Y80.381 E123.5043
G1 X81.383 Y80.298 E123.52578
G1 X81.65 Y80.236 E123.54401
G1 X122.53 Y121.116 E127.38975
G1 X123.004 Y121.072 E127.42142
G1 X123.569 Y120.927 E127.46022
G1 X123.702 Y120.874 E127.46974
G1 X82.856 Y80.028 E131.31229
G1 X82.872 Y80.025 E131.31337
G1 X83.239 Y79.987 E131.33791
G1 X83.577 Y79.966 E131.36044
G1 X83.939 Y79.954 E131.38453
G1 X84.154 Y79.951 E131.39884
G1 X84.193 Y79.951 E131.40143
G1 X124.65 Y120.407 E135.20733
G1 X125.078 Y120.095 E135.24256
G1 X125.424 Y119.767 E135.27428
G1 X85.607 Y79.95 E139.02002
G1 X87.02 Y79.949 E139.11401
G1 X126.043 Y118.972 E142.78505
G1 X126.186 Y118.745 E142.8029
G1 X126.429 Y118.222 E142.84126
G1 X126.496 Y118.011 E142.85599
G1 X87.747 Y79.262 E146.50126
G1 X87.999 Y78.972 E146.52681
G1 X88.439 Y78.577 E146.56615
G1 X88.461 Y78.562 E146.56792
G1 X126.725 Y116.826 E150.16756
G1 X126.741 Y116.524 E150.18768
G1 X126.732 Y115.418 E150.26125
G1 X89.344 Y78.03 E153.77848
G1 X89.433 Y77.983 E153.78518
G1 X89.977 Y77.785 E153.82369
G1 X90.422 Y77.694 E153.8539
G1 X126.72 Y113.992 E157.2686
G1 X126.707 Y112.565 E157.36352
G1 X91.694 Y77.552 E160.65733
G0 F1800 X92.813 Y77.505
G1 F2700 X93.095 Y77.539 E160.67623
G1 X126.695 Y111.139 E163.83711
G1 X126.683 Y109.712 E163.93204
G1 X94.844 Y77.874 E166.92721
G1 X94.927 Y77.892 E166.93286
G1 X95.465 Y78.08 E166.97077
G1 X95.984 Y78.343 E167.00947
G1 X96.471 Y78.667 E167.04838
G1 X97.478 Y79.545 E167.13725
G1 X97.718 Y79.333 E167.15855
G1 X126.671 Y108.286 E169.88228
G1 X126.663 Y107.421 E169.93982
G1 X126.649 Y107.104 E169.96093
G1 X126.606 Y106.807 E169.98089
G1 X120.248 Y100.449 E170.57901
G1 X121.224 Y100.449 E170.64393
G1 X121.693 Y100.479 E170.6752
G1 X126.012 Y104.798 E171.0815
G1 X125.592 Y103.579 E171.16727
G1 X125.41 Y103.126 E171.19974
G1 X125.131 Y102.609 E171.23882
G1 X124.862 Y102.234 E171.26952
G1 X124.051 Y101.423 E171.34581
G0 F1800 X119.506 Y99.707
G1 F2700 X98.47 Y78.671 E173.32475
G1 X98.927 Y78.36 E173.36152
G1 X99.354 Y78.141 E173.39345
G1 X118.683 Y97.47 E175.2118
G1 X118.683 Y97.205 E175.22943
G1 X118.617 Y96.631 E175.26786
G1 X118.496 Y96.146 E175.30111
G1 X118.471 Y95.844 E175.32127
G1 X100.421 Y77.794 E177.0193
G1 X100.46 Y77.784 E177.02198
G1 X100.502 Y77.777 E177.02481
G1 X101.042 Y77.708 E177.06103
G1 X101.701 Y77.66 E177.10498
G1 X118.009 Y93.968 E178.63914
G1 X117.88 Y93.619 E178.66389
G1 X117.608 Y93.115 E178.70198
G1 X116.998 Y92.271 E178.77126
G1 X117.307 Y91.851 E178.80594
G1 X103.017 Y77.561 E180.15026
G1 X103.306 Y77.539 E180.16954
G1 X103.91 Y77.532 E180.20972
G1 X104.469 Y77.599 E180.24717
G1 X117.907 Y91.037 E181.51133
G1 X117.979 Y90.939 E181.51942
G1 X118.262 Y90.43 E181.55816
G1 X118.392 Y90.108 E181.58126
G1 X108.234 Y79.949 E182.53691
G1 X109.648 Y79.949 E182.63097
G1 X118.673 Y88.974 E183.47999
G1 X118.701 Y88.749 E183.49507
G1 X118.703 Y88.17 E183.53359
G1 X118.629 Y87.594 E183.57222
G1 X118.603 Y87.491 E183.57928
G1 X111.062 Y79.949 E184.28874
G1 X112.476 Y79.949 E184.3828
G1 X117.975 Y85.448 E184.90011
G1 X117.295 Y83.354 E185.04657
G1 X114.057 Y80.116 E185.35118
G0 F1800 X76.943 Y82.6
G1 F2700 X117.192 Y122.849 E189.13756
G1 X115.778 Y122.849 E189.23162
G1 X76.209 Y83.28 E192.95403
G1 X76.185 Y83.302 E192.95619
G1 X75.89 Y83.615 E192.9848
G1 X75.692 Y83.838 E193.00464
G1 X75.538 Y84.023 E193.02065
G1 X114.363 Y122.849 E196.67312
G1 X112.949 Y122.849 E196.76718
G1 X74.935 Y84.835 E200.3433
G1 X74.814 Y85.02 E200.35801
G1 X74.577 Y85.402 E200.38791
G1 X74.446 Y85.631 E200.40546
G1 X74.401 Y85.714 E200.41174
G1 X111.535 Y122.849 E203.90513
G1 X110.121 Y122.849 E203.99919
G1 X73.938 Y86.666 E207.40306
G1 X73.912 Y86.725 E207.40735
G1 X73.802 Y86.992 E207.42656
G1 X73.672 Y87.333 E207.45083
G1 X73.67 Y87.333 E207.45097
G1 X73.573 Y87.618 E207.47099
G1 X73.551 Y87.693 E207.47619
G1 X108.707 Y122.849 E210.78345
G1 X107.292 Y122.849 E210.87758
G1 X73.259 Y88.815 E214.07924
G1 X73.206 Y89.083 E214.09742
G1 X73.153 Y89.4 E214.11879
G1 X73.096 Y89.839 E214.14824
G1 X73.077 Y90.047 E214.16214
G1 X105.878 Y122.849 E217.2479
G1 X104.464 Y122.849 E217.34196
G1 X72.991 Y91.375 E220.30279
G1 X72.912 Y91.604 E220.31891
G1 X72.793 Y92.16 E220.35673
G1 X72.761 Y92.56 E220.38342
G1 X103.05 Y122.849 E223.23283
G1 X101.635 Y122.849 E223.32695
G1 X72.747 Y93.961 E226.04456
G1 X72.751 Y94.045 E226.05015
G1 X72.846 Y94.625 E226.08925
G1 X72.928 Y94.9 E226.10834
G1 X72.916 Y95.543 E226.15112
G1 X100.221 Y122.849 E228.71985
G1 X98.807 Y122.849 E228.81391
G1 X72.891 Y96.933 E231.25193
G1 X72.866 Y98.322 E231.34434
G1 X97.393 Y122.849 E233.65169
G1 X95.979 Y122.849 E233.74575
G1 X72.841 Y99.711 E235.92243
G1 X72.816 Y101.1 E236.01484
G1 X94.564 Y122.849 E238.06081
G1 X93.15 Y122.849 E238.15487
G1 X72.791 Y102.49 E240.07012
G1 X72.786 Y102.793 E240.09028
G1 X72.699 Y103.049 E240.10826
G1 X72.579 Y103.61 E240.14643
G1 X72.573 Y103.685 E240.15143
G1 X91.736 Y122.849 E241.95421
G1 X90.322 Y122.849 E242.04827
G1 X72.52 Y105.047 E243.72298
G1 X72.538 Y105.502 E243.75327
G1 X72.632 Y106.077 E243.79202
G1 X72.675 Y106.224 E243.80221
G1 X72.695 Y106.636 E243.82965
G1 X88.908 Y122.849 E245.35487
G1 X87.493 Y122.849 E245.449
G1 X72.803 Y108.159 E246.83094
G1 X72.923 Y108.692 E246.86729
G1 X73.112 Y109.23 E246.90522
G1 X73.381 Y109.756 E246.94452
G1 X73.705 Y110.234 E246.98293
G1 X74.099 Y110.684 E247.02272
G1 X74.51 Y111.094 E247.06133
G1 X75.055 Y111.563 E247.10916
G1 X76.023 Y112.178 E247.18545
G1 X76.057 Y112.826 E247.22862
G1 X86.079 Y122.849 E248.17147
G1 X84.665 Y122.849 E248.26553
G1 X76.134 Y114.318 E249.06807
G1 X76.213 Y115.811 E249.16753
G1 X83.251 Y122.849 E249.82962
G1 X81.837 Y122.849 E249.92368
G1 X76.291 Y117.304 E250.44537
G1 X76.354 Y118.487 E250.52417
G1 X76.392 Y118.818 E250.54633
G1 X80.386 Y122.813 E250.92211
G0 F1800 X76.307 Y82.9
;TIME_ELAPSED:116.738102
;LAYER:-4
G0 X76.307 Y82.9 Z0.7
G1 F3000 X76.05 Y83.155 E250.93415
G1 X76.008 Y83.2 E250.9362
G1 X117.456 Y83.2 E252.31477
G1 X117.586 Y83.6 E252.32876
G1 X75.638 Y83.6 E253.72395
G1 X75.544 Y83.706 E253.72866
G1 X75.3 Y84 E253.74137
G1 X117.716 Y84 E255.15213
G1 X117.846 Y84.4 E255.16612
G1 X74.997 Y84.4 E256.59129
G1 X74.845 Y84.611 E256.59994
G1 X74.721 Y84.8 E256.60745
G1 X117.976 Y84.8 E258.04612
G1 X118.106 Y85.2 E258.06011
G1 X74.468 Y85.2 E259.51152
G1 X74.407 Y85.298 E259.51536
G1 X74.272 Y85.533 E259.52437
G1 X74.237 Y85.6 E259.52688
G1 X118.235 Y85.6 E260.99026
G1 X118.365 Y86 E261.00425
G1 X74.028 Y86 E262.47891
G1 X73.927 Y86.205 E262.48651
G1 X73.926 Y86.205 E262.48654
G1 X73.839 Y86.4 E262.49364
G1 X118.495 Y86.4 E263.97891
G1 X118.625 Y86.8 E263.9929
G1 X73.665 Y86.8 E265.48827
G1 X73.617 Y86.916 E265.49245
G1 X73.509 Y87.2 E265.50255
G1 X118.738 Y87.2 E267.00688
G1 X118.829 Y87.559 E267.01919
G1 X118.835 Y87.6 E267.02057
G1 X73.372 Y87.6 E268.53268
G1 X73.258 Y87.977 E268.54578
G1 X73.257 Y87.977 E268.54581
G1 X73.251 Y88 E268.5466
G1 X118.885 Y88 E270.06439
G1 X118.904 Y88.153 E270.06952
G1 X118.903 Y88.4 E270.07774
G1 X73.149 Y88.4 E271.59952
G1 X73.073 Y88.73 E271.61079
G1 X73.059 Y88.8 E271.61316
G1 X118.897 Y88.8 E273.13774
G1 X118.845 Y89.2 E273.15115
G1 X72.984 Y89.2 E274.6765
G1 X72.953 Y89.382 E274.68264
G1 X72.925 Y89.6 E274.68995
G1 X118.761 Y89.6 E276.21446
G1 X118.669 Y89.956 E276.22669
G1 X118.651 Y90 E276.22827
G1 X72.881 Y90 E277.75059
G1 X72.862 Y90.213 E277.7577
G0 F1800 X72.863 Y90.213
G1 F3000 X72.852 Y90.4 E277.76393
G1 X118.49 Y90.4 E279.28186
G1 X118.442 Y90.52 E279.28615
G1 X118.286 Y90.8 E279.29681
G1 X72.836 Y90.8 E280.80849
G1 X72.821 Y91.2 E280.8218
G1 X118.036 Y91.2 E282.32566
G1 X117.741 Y91.6 E282.34219
G1 X72.709 Y91.6 E283.83996
G1 X72.624 Y92 E283.85356
G1 X117.446 Y92 E285.34435
G1 X117.246 Y92.272 E285.35558
G1 X117.339 Y92.4 E285.36084
G1 X72.573 Y92.4 E286.84976
G1 X72.545 Y92.746 E286.86131
G1 X72.545 Y92.8 E286.8631
G1 X117.629 Y92.8 E288.3626
G1 X117.778 Y93.006 E288.37106
G1 X117.883 Y93.2 E288.3784
G1 X72.537 Y93.2 E289.88661
G1 X72.531 Y93.521 E289.89729
G1 X72.534 Y93.6 E289.89992
G1 X118.088 Y93.6 E291.41505
G1 X118.237 Y94 E291.42925
G1 X72.55 Y94 E292.9488
G1 X72.553 Y94.07 E292.95113
G1 X72.606 Y94.4 E292.96225
G1 X118.371 Y94.4 E294.4844
G1 X118.46 Y94.71 E294.49513
G1 X118.484 Y94.8 E294.49822
G1 X72.689 Y94.8 E296.02137
G1 X72.728 Y94.93 E296.02589
G1 X72.724 Y95.2 E296.03487
G1 X118.573 Y95.2 E297.55981
G1 X118.639 Y95.6 E297.5733
G1 X72.716 Y95.6 E299.1007
G1 X72.709 Y96 E299.11401
G1 X118.686 Y96 E300.64321
G1 X118.696 Y96.114 E300.64701
G1 X118.767 Y96.4 E300.65682
G1 X72.702 Y96.4 E302.18894
G1 X72.695 Y96.8 E302.20225
